assets/icon-error.svg

<svg aria-hidden="true" focusable="false" class="icon icon-error" viewBox="0 0 13 13">
  <circle cx="6.5" cy="6.50049" r="5.5" stroke="white" stroke-width="2"/>
  <circle cx="6.5" cy="6.5" r="5.5" fill="#EB001B" stroke="#EB001B" stroke-width="0.7"/>
  <path d="M5.87413 3.52832L5.97439 7.57216H7.02713L7.12739 3.52832H5.87413ZM6.50076 9.66091C6.88091 9.66091 7.18169 9.37267 7.18169 9.00504C7.18169 8.63742 6.88091 8.34917 6.50076 8.34917C6.12061 8.34917 5.81982 8.63742 5.81982 9.00504C5.81982 9.37267 6.12061 9.66091 6.50076 9.66091Z" fill="white" />
  <path d="M5.87413 3.17832H5.51535L5.52424 3.537L5.6245 7.58083L5.63296 7.92216H5.97439H7.02713H7.36856L7.37702 7.58083L7.47728 3.537L7.48617 3.17832H7.12739H5.87413ZM6.50076 10.0109C7.06121 10.0109 7.5317 9.57872 7.5317 9.00504C7.5317 8.43137 7.06121 7.99918 6.50076 7.99918C5.94031 7.99918 5.46982 8.43137 5.46982 9.00504C5.46982 9.57872 5.94031 10.0109 6.50076 10.0109Z" fill="white" stroke="#EB001B" stroke-width="0.7" />
</svg>

<svg class="icon icon-error" viewBox="0 0 13 13"><circle cx="6.5" cy="6.5" r="5.5" stroke="#fff" stroke-width="2"/><circle cx="6.5" cy="6.5" r="5.5" fill="#EB001B" stroke="#EB001B" stroke-width=".7"/><path fill="#fff" d="m5.874 3.528.1 4.044h1.053l.1-4.044zm.627 6.133c.38 0 .68-.288.68-.656s-.3-.656-.68-.656-.681.288-.681.656.3.656.68.656"/><path fill="#fff" stroke="#EB001B" stroke-width=".7" d="M5.874 3.178h-.359l.01.359.1 4.044.008.341h1.736l.008-.341.1-4.044.01-.359H5.873Zm.627 6.833c.56 0 1.03-.432 1.03-1.006s-.47-1.006-1.03-1.006-1.031.432-1.031 1.006.47 1.006 1.03 1.006Z"/></svg>
